public/assets/img/logo1.svg

<svg width="144" height="48" viewBox="0 0 144 48" fill="none" xmlns="http://www.w3.org/2000/svg">
<rect width="144" height="15" fill="white"/>
<path d="M11.561 4.088C11.822 4.466 12.182 5.069 12.389 5.483L11.606 5.816C11.345 5.249 11.138 4.862 10.814 4.403L11.561 4.088ZM12.803 3.656C13.082 4.016 13.433 4.601 13.649 4.997L12.884 5.339C12.596 4.772 12.371 4.421 12.038 3.971L12.803 3.656ZM7.655 3.917C8.249 4.241 9.239 4.88 9.707 5.204L9.041 6.194C8.537 5.843 7.601 5.24 7.007 4.907L7.655 3.917ZM5.99 10.307C6.998 10.136 8.078 9.83 9.05 9.29C10.58 8.435 11.84 7.202 12.551 5.915L13.244 7.139C12.416 8.39 11.138 9.524 9.671 10.379C8.753 10.892 7.457 11.342 6.665 11.486L5.99 10.307ZM6.269 5.969C6.881 6.293 7.871 6.914 8.33 7.238L7.673 8.246C7.16 7.886 6.224 7.283 5.621 6.959L6.269 5.969ZM18.545 5.645C18.716 6.032 19.157 7.202 19.283 7.616L18.203 7.994C18.095 7.553 17.699 6.464 17.474 5.996L18.545 5.645ZM20.597 5.897L21.866 6.302C21.758 6.59 21.704 6.779 21.65 6.959C21.416 7.868 21.038 8.804 20.426 9.596C19.589 10.676 18.464 11.432 17.411 11.828L16.466 10.865C17.456 10.604 18.707 9.92 19.454 8.984C20.066 8.219 20.498 7.022 20.597 5.897ZM16.457 6.122C16.682 6.581 17.114 7.67 17.294 8.174L16.196 8.588C16.043 8.102 15.593 6.905 15.377 6.509L16.457 6.122ZM30.47 3.764C30.191 3.764 29.975 3.98 29.975 4.25C29.975 4.52 30.191 4.745 30.47 4.745C30.74 4.745 30.956 4.52 30.956 4.25C30.956 3.98 30.74 3.764 30.47 3.764ZM30.47 5.294C29.894 5.294 29.426 4.826 29.426 4.25C29.426 3.674 29.894 3.215 30.47 3.215C31.046 3.215 31.505 3.674 31.505 4.25C31.505 4.826 31.046 5.294 30.47 5.294ZM25.052 7.292L26.069 7.769C25.655 8.57 24.827 9.749 24.332 10.28L23.36 9.614C23.963 9.038 24.683 8.048 25.052 7.292ZM30.209 6.491H28.103V10.676C28.103 11.198 27.806 11.522 27.167 11.522C26.681 11.522 26.159 11.495 25.7 11.441L25.592 10.325C25.979 10.397 26.375 10.433 26.591 10.433C26.825 10.433 26.915 10.343 26.924 10.109C26.933 9.776 26.933 6.923 26.933 6.5V6.491H24.647C24.377 6.491 24.026 6.5 23.774 6.527V5.33C24.044 5.366 24.368 5.402 24.647 5.402H26.933V4.682C26.933 4.448 26.888 4.052 26.852 3.899H28.184C28.166 4.025 28.103 4.457 28.103 4.682V5.402H30.2C30.452 5.402 30.848 5.375 31.082 5.339V6.518C30.803 6.5 30.452 6.491 30.209 6.491ZM28.958 7.796L29.939 7.265C30.398 7.841 31.118 8.975 31.478 9.632L30.416 10.208C30.029 9.434 29.39 8.345 28.958 7.796ZM32.828 8.246V6.833C33.152 6.86 33.809 6.887 34.277 6.887H39.11C39.524 6.887 39.929 6.851 40.163 6.833V8.246C39.947 8.237 39.488 8.201 39.11 8.201H34.277C33.764 8.201 33.161 8.219 32.828 8.246ZM43.106 12.818C42.26 11.423 41.765 9.965 41.765 8.156C41.765 6.365 42.26 4.889 43.106 3.503L43.934 3.854C43.178 5.168 42.836 6.689 42.836 8.156C42.836 9.641 43.178 11.153 43.934 12.467L43.106 12.818ZM44.7884 11V10.199L47.8934 5.447H45.0854V4.34H49.5224V5.132L46.4264 9.884H49.5584V11H44.7884ZM50.7399 11V4.34H52.0719V11H50.7399ZM53.7106 11V4.34H55.8976C57.3736 4.34 58.5076 4.853 58.5076 6.428C58.5076 7.949 57.3646 8.633 55.9336 8.633H55.0426V11H53.7106ZM55.0426 7.58H55.8436C56.7616 7.58 57.2026 7.193 57.2026 6.428C57.2026 5.654 56.7166 5.393 55.7986 5.393H55.0426V7.58ZM59.7135 11V4.34H61.9005C63.3765 4.34 64.5105 4.853 64.5105 6.428C64.5105 7.949 63.3675 8.633 61.9365 8.633H61.0455V11H59.7135ZM61.0455 7.58H61.8465C62.7645 7.58 63.2055 7.193 63.2055 6.428C63.2055 5.654 62.7195 5.393 61.8015 5.393H61.0455V7.58ZM68.3625 11.126C66.5985 11.126 65.3835 9.803 65.3835 7.643C65.3835 5.474 66.5985 4.214 68.3625 4.214C70.1265 4.214 71.3415 5.483 71.3415 7.643C71.3415 9.803 70.1265 11.126 68.3625 11.126ZM68.3625 9.974C69.3525 9.974 69.9825 9.065 69.9825 7.643C69.9825 6.212 69.3525 5.357 68.3625 5.357C67.3725 5.357 66.7425 6.212 66.7425 7.643C66.7425 9.065 67.3725 9.974 68.3625 9.974ZM73.1102 12.818L72.2912 12.467C73.0472 11.153 73.3892 9.641 73.3892 8.156C73.3892 6.689 73.0472 5.168 72.2912 3.854L73.1102 3.503C73.9652 4.889 74.4602 6.365 74.4602 8.156C74.4602 9.965 73.9652 11.423 73.1102 12.818ZM80.4896 10.325V9.74H78.9326V10.325H80.4896ZM83.3696 7.733V10.649C83.3696 11.144 83.2706 11.432 82.9196 11.594C82.5866 11.756 82.1096 11.765 81.4616 11.765C81.4346 11.558 81.3536 11.279 81.2546 11.045H78.9326V11.45H77.9966V9.029H81.4346V10.775C81.7406 10.784 82.0196 10.784 82.1186 10.775C82.2536 10.766 82.2896 10.739 82.2896 10.631V8.624H77.1956V11.783H76.1516V7.733H83.3696ZM81.0926 6.635V6.086H78.2846V6.635H81.0926ZM77.2676 5.375H82.1816V7.355H77.2676V5.375ZM80.2106 4.124H83.6576V5.033H75.7916V4.124H79.1216V3.368H80.2106V4.124ZM86.3126 3.395L87.2756 3.701C87.0506 4.295 86.7716 4.898 86.4656 5.474V11.774H85.4576V7.076C85.2776 7.319 85.0976 7.544 84.9086 7.742C84.8096 7.49 84.5306 6.923 84.3596 6.662C85.1336 5.879 85.8716 4.637 86.3126 3.395ZM90.2186 6.338V5.213H89.6246V6.338H90.2186ZM91.7216 10.154V7.265H91.1186V10.154H91.7216ZM88.1576 7.265V10.154H88.7156V7.265H88.1576ZM90.2186 7.265H89.6156V10.154H90.2186V7.265ZM92.7926 5.213H91.2266V6.338H92.7476V11.531H91.7216V11.072H88.1576V11.585H87.1676V6.338H88.6166V5.213H87.0776V4.259H92.7926V5.213ZM100.272 5.168V4.547H99.1376V5.168H100.272ZM98.2466 5.168V4.547H97.1576V5.168H98.2466ZM96.2666 5.168V4.547H95.1866V5.168H96.2666ZM101.307 3.746V5.96H94.1966V3.746H101.307ZM95.7626 9.155V9.605H99.7046V9.155H95.7626ZM95.7626 8.075V8.525H99.7046V8.075H95.7626ZM95.7626 7.004V7.445H99.7046V7.004H95.7626ZM100.83 10.28H99.2996C100.254 10.586 101.289 10.982 101.919 11.261L100.758 11.792C100.2 11.495 99.2096 11.081 98.2286 10.748L98.9576 10.28H96.4466L97.2296 10.631C96.4736 11.126 95.2946 11.558 94.3586 11.819C94.1786 11.603 93.7916 11.216 93.5666 11.036C94.4486 10.874 95.4296 10.586 96.0686 10.28H94.6826V6.329H100.83V10.28ZM106.581 4.871V10.793C107.175 10.46 107.697 9.974 108.138 9.362C107.589 8.363 107.202 7.157 106.923 5.798L107.949 5.591C108.129 6.554 108.399 7.463 108.777 8.255C109.128 7.481 109.398 6.581 109.551 5.573H106.896V4.871H106.581ZM104.268 8.543V9.524C104.682 9.47 105.114 9.407 105.546 9.353V8.543H104.268ZM104.268 6.689V7.589H105.546V6.689H104.268ZM105.546 4.871H104.268V5.726H105.546V4.871ZM110.028 4.493L110.73 4.664C110.541 6.626 110.109 8.174 109.434 9.38C109.875 9.983 110.415 10.487 111.063 10.838C110.82 11.036 110.487 11.441 110.325 11.72C109.713 11.351 109.209 10.892 108.777 10.343C108.318 10.901 107.787 11.351 107.175 11.72C107.04 11.486 106.797 11.153 106.581 10.937V11.783H105.546V10.343C104.511 10.523 103.458 10.685 102.63 10.811L102.423 9.74C102.666 9.713 102.945 9.686 103.251 9.65V4.871H102.639V3.881H107.157V4.52H109.848L110.028 4.493ZM113.511 7.13V7.589H115.167V7.13H113.511ZM113.511 5.987V6.446H115.167V5.987H113.511ZM117.93 5.987H116.211V6.446H117.93V5.987ZM117.93 7.589V7.13H116.211V7.589H117.93ZM119.802 8.795V9.695H117.867V10.748C117.867 11.261 117.759 11.504 117.381 11.648C117.012 11.783 116.472 11.792 115.752 11.792C115.707 11.504 115.554 11.126 115.419 10.856C115.896 10.874 116.463 10.874 116.616 10.874C116.76 10.865 116.814 10.829 116.814 10.712V9.695H113.889C114.339 10.019 114.834 10.46 115.077 10.784L114.222 11.414C113.979 11.054 113.412 10.514 112.935 10.154L113.583 9.695H111.657V8.795H116.814V8.318H112.521V5.258H115.167V4.853H111.864V3.98H115.167V3.386H116.211V3.98H119.586V4.853H116.211V5.258H118.974V8.318H117.867V8.795H119.802ZM123.393 4.601H122.025V5.069H123.393V4.601ZM122.025 6.347H123.393V5.834H122.025V6.347ZM124.392 3.737V7.202H122.025V11.783H120.963V3.737H124.392ZM126.039 6.365H127.461V5.834H126.039V6.365ZM127.461 4.601H126.039V5.069H127.461V4.601ZM128.541 3.737V10.487C128.541 11.099 128.415 11.414 128.019 11.576C127.632 11.756 127.038 11.774 126.165 11.774C126.12 11.468 125.949 10.964 125.787 10.676C126.354 10.712 127.02 10.703 127.209 10.703C127.398 10.703 127.461 10.64 127.461 10.469V7.229H125.022V3.737H128.541ZM136.092 10.514V9.29H132.897V10.514H136.092ZM134.913 5.573V6.419H137.721V7.364H134.913V8.345H137.19V11.774H136.092V11.45H132.897V11.783H131.853V8.345H133.824V5.573H134.913ZM134.562 4.421H137.838V5.438H131.313V6.689C131.313 8.138 131.178 10.361 130.368 11.765C130.17 11.585 129.693 11.279 129.441 11.162C130.179 9.875 130.242 7.985 130.242 6.689V4.421H133.446V3.386H134.562V4.421Z" fill="#333333"/>
<path d="M17.496 21.568C18.192 22.576 19.152 24.184 19.704 25.288L17.616 26.176C16.92 24.664 16.368 23.632 15.504 22.408L17.496 21.568ZM20.808 20.416C21.552 21.376 22.488 22.936 23.064 23.992L21.024 24.904C20.256 23.392 19.656 22.456 18.768 21.256L20.808 20.416ZM7.08 21.112C8.664 21.976 11.304 23.68 12.552 24.544L10.776 27.184C9.432 26.248 6.936 24.64 5.352 23.752L7.08 21.112ZM2.64 38.152C5.328 37.696 8.208 36.88 10.8 35.44C14.88 33.16 18.24 29.872 20.136 26.44L21.984 29.704C19.776 33.04 16.368 36.064 12.456 38.344C10.008 39.712 6.552 40.912 4.44 41.296L2.64 38.152ZM3.384 26.584C5.016 27.448 7.656 29.104 8.88 29.968L7.128 32.656C5.76 31.696 3.264 30.088 1.656 29.224L3.384 26.584ZM36.12 25.72C36.576 26.752 37.752 29.872 38.088 30.976L35.208 31.984C34.92 30.808 33.864 27.904 33.264 26.656L36.12 25.72ZM41.592 26.392L44.976 27.472C44.688 28.24 44.544 28.744 44.4 29.224C43.776 31.648 42.768 34.144 41.136 36.256C38.904 39.136 35.904 41.152 33.096 42.208L30.576 39.64C33.216 38.944 36.552 37.12 38.544 34.624C40.176 32.584 41.328 29.392 41.592 26.392ZM30.552 26.992C31.152 28.216 32.304 31.12 32.784 32.464L29.856 33.568C29.448 32.272 28.248 29.08 27.672 28.024L30.552 26.992ZM67.92 20.704C67.176 20.704 66.6 21.28 66.6 22C66.6 22.72 67.176 23.32 67.92 23.32C68.64 23.32 69.216 22.72 69.216 22C69.216 21.28 68.64 20.704 67.92 20.704ZM67.92 24.784C66.384 24.784 65.136 23.536 65.136 22C65.136 20.464 66.384 19.24 67.92 19.24C69.456 19.24 70.68 20.464 70.68 22C70.68 23.536 69.456 24.784 67.92 24.784ZM53.472 30.112L56.184 31.384C55.08 33.52 52.872 36.664 51.552 38.08L48.96 36.304C50.568 34.768 52.488 32.128 53.472 30.112ZM67.224 27.976H61.608V39.136C61.608 40.528 60.816 41.392 59.112 41.392C57.816 41.392 56.424 41.32 55.2 41.176L54.912 38.2C55.944 38.392 57 38.488 57.576 38.488C58.2 38.488 58.44 38.248 58.464 37.624C58.488 36.736 58.488 29.128 58.488 28V27.976H52.392C51.672 27.976 50.736 28 50.064 28.072V24.88C50.784 24.976 51.648 25.072 52.392 25.072H58.488V23.152C58.488 22.528 58.368 21.472 58.272 21.064H61.824C61.776 21.4 61.608 22.552 61.608 23.152V25.072H67.2C67.872 25.072 68.928 25 69.552 24.904V28.048C68.808 28 67.872 27.976 67.224 27.976ZM63.888 31.456L66.504 30.04C67.728 31.576 69.648 34.6 70.608 36.352L67.776 37.888C66.744 35.824 65.04 32.92 63.888 31.456ZM92.472 22.912L94.872 24.88C94.536 25.264 94.224 25.576 94.056 25.888C92.328 28.696 89.256 32.536 85.872 35.272C87.24 36.64 88.656 38.2 89.592 39.328L86.784 41.56C85.776 40.216 83.76 37.984 82.2 36.376C80.808 34.96 78.36 32.8 76.92 31.768L79.464 29.728C80.424 30.448 82.008 31.744 83.52 33.064C86.232 30.904 88.488 28.12 89.616 26.152H76.92C75.96 26.152 74.664 26.272 74.16 26.32V22.96C74.784 23.056 76.104 23.176 76.92 23.176H90.24C91.152 23.176 91.968 23.08 92.472 22.912ZM98.064 39.112V35.44C99 35.512 100.128 35.608 101.064 35.608H114.84C115.656 35.608 116.664 35.536 117.48 35.44V39.112C116.64 39.016 115.56 38.968 114.84 38.968H101.064C100.128 38.968 98.952 39.04 98.064 39.112ZM100.08 27.184V23.704C100.944 23.8 102.072 23.848 102.888 23.848H112.824C113.784 23.848 114.816 23.776 115.488 23.704V27.184C114.792 27.16 113.664 27.088 112.824 27.088H102.912C102 27.088 100.896 27.136 100.08 27.184ZM129.648 26.992H133.128C133.128 32.944 133.008 37.84 126.456 41.344L123.672 39.064C124.44 38.8 125.304 38.392 126.192 37.744C129.24 35.632 129.816 33.088 129.816 29.152C129.816 28.408 129.768 27.76 129.648 26.992ZM141 21.976L142.92 23.752C142.656 24.064 142.2 24.64 141.984 25C140.856 26.872 138.576 29.896 136.2 31.576L133.728 29.584C135.648 28.408 137.52 26.296 138.144 25.12H125.64C124.632 25.12 123.84 25.192 122.712 25.288V21.952C123.624 22.096 124.632 22.192 125.64 22.192H138.576C139.248 22.192 140.568 22.12 141 21.976Z" fill="white"/>
</svg>

<svg fill="none" height="48" viewBox="0 0 144 48" width="144" xmlns="http://www.w3.org/2000/svg"><path d="m0 0h144v15h-144z" fill="#fff"/><path d="m11.561 4.088c.261.378.621.981.828 1.395l-.783.333c-.261-.567-.468-.954-.792-1.413zm1.242-.432c.279.36.63.945.846 1.341l-.765.342c-.288-.567-.513-.918-.846-1.368zm-5.148.261c.594.324 1.584.963 2.052 1.287l-.666.99c-.504-.351-1.44-.954-2.034-1.287zm-1.665 6.39c1.008-.171 2.088-.477 3.06-1.017 1.53-.855 2.79-2.088 3.501-3.375l.693 1.224c-.828 1.251-2.106 2.385-3.573 3.24-.918.513-2.214.963-3.006 1.107zm.279-4.338c.612.324 1.602.945 2.061 1.269l-.657 1.008c-.513-.36-1.449-.963-2.052-1.287zm12.276-.324c.171.387.612 1.557.738 1.971l-1.08.378c-.108-.441-.504-1.53-.729-1.998zm2.052.252 1.269.405c-.108.288-.162.477-.216.657-.234.909-.612 1.845-1.224 2.637-.837 1.08-1.962 1.836-3.015 2.232l-.945-.963c.99-.261 2.241-.945 2.988-1.881.612-.765 1.044-1.962 1.143-3.087zm-4.14.225c.225.459.657 1.548.837 2.052l-1.098.414c-.153-.486-.603-1.683-.819-2.079zm14.013-2.358c-.279 0-.495.216-.495.486s.216.495.495.495c.27 0 .486-.225.486-.495s-.216-.486-.486-.486zm0 1.53c-.576 0-1.044-.468-1.044-1.044s.468-1.035 1.044-1.035 1.035.459 1.035 1.035-.459 1.044-1.035 1.044zm-5.418 1.998 1.017.477c-.414.801-1.242 1.98-1.737 2.511l-.972-.666c.603-.576 1.323-1.566 1.692-2.322zm5.157-.801h-2.106v4.185c0 .522-.297.846-.936.846-.486 0-1.008-.027-1.467-.081l-.108-1.116c.387.072.783.108.999.108.234 0 .324-.09.333-.324.009-.333.009-3.186.009-3.609v-.009h-2.286c-.27 0-.621.009-.873.036v-1.197c.27.036.594.072.873.072h2.286v-.72c0-.234-.045-.63-.081-.783h1.332c-.018.126-.081.558-.081.783v.72h2.097c.252 0 .648-.027.882-.063v1.179c-.279-.018-.63-.027-.873-.027zm-1.251 1.305.981-.531c.459.576 1.179 1.71 1.539 2.367l-1.062.576c-.387-.774-1.026-1.863-1.458-2.412zm3.87.45v-1.413c.324.027.981.054 1.449.054h4.833c.414 0 .819-.036 1.053-.054v1.413c-.216-.009-.675-.045-1.053-.045h-4.833c-.513 0-1.116.018-1.449.045zm10.278 4.572c-.846-1.395-1.341-2.853-1.341-4.662 0-1.791.495-3.267 1.341-4.653l.828.351c-.756 1.314-1.098 2.835-1.098 4.302 0 1.485.342 2.997 1.098 4.311zm1.6824-1.818v-.801l3.105-4.752h-2.808v-1.107h4.437v.792l-3.096 4.752h3.132v1.116zm5.9515 0v-6.66h1.332v6.66zm2.9707 0v-6.66h2.187c1.476 0 2.61.513 2.61 2.088 0 1.521-1.143 2.205-2.574 2.205h-.891v2.367zm1.332-3.42h.801c.918 0 1.359-.387 1.359-1.152 0-.774-.486-1.035-1.404-1.035h-.756zm4.6709 3.42v-6.66h2.187c1.476 0 2.61.513 2.61 2.088 0 1.521-1.143 2.205-2.574 2.205h-.891v2.367zm1.332-3.42h.801c.918 0 1.359-.387 1.359-1.152 0-.774-.486-1.035-1.404-1.035h-.756zm7.317 3.546c-1.764 0-2.979-1.323-2.979-3.483 0-2.169 1.215-3.429 2.979-3.429s2.979 1.269 2.979 3.429-1.215 3.483-2.979 3.483zm0-1.152c.99 0 1.62-.909 1.62-2.331 0-1.431-.63-2.286-1.62-2.286s-1.62.855-1.62 2.286c0 1.422.63 2.331 1.62 2.331zm4.7477 2.844-.819-.351c.756-1.314 1.098-2.826 1.098-4.311 0-1.467-.342-2.988-1.098-4.302l.819-.351c.855 1.386 1.35 2.862 1.35 4.653 0 1.809-.495 3.267-1.35 4.662zm7.3794-2.493v-.585h-1.557v.585zm2.88-2.592v2.916c0 .495-.099.783-.45.945-.333.162-.81.171-1.458.171-.027-.207-.108-.486-.207-.72h-2.322v.405h-.936v-2.421h3.438v1.746c.306.009.585.009.684 0 .135-.009.171-.036.171-.144v-2.007h-5.094v3.159h-1.044v-4.05zm-2.277-1.098v-.549h-2.808v.549zm-3.825-1.26h4.914v1.98h-4.914zm2.943-1.251h3.447v.909h-7.866v-.909h3.33v-.756h1.089zm6.102-.729.963.306c-.225.594-.504 1.197-.81 1.773v6.3h-1.008v-4.698c-.18.243-.36.468-.549.666-.099-.252-.378-.819-.549-1.08.774-.783 1.512-2.025 1.953-3.267zm3.906 2.943v-1.125h-.594v1.125zm1.503 3.816v-2.889h-.603v2.889zm-3.564-2.889v2.889h.558v-2.889zm2.061 0h-.603v2.889h.603zm2.574-2.052h-1.566v1.125h1.521v5.193h-1.026v-.459h-3.564v.513h-.99v-5.247h1.449v-1.125h-1.539v-.954h5.715zm7.4794-.045v-.621h-1.1344v.621zm-2.0254 0v-.621h-1.089v.621zm-1.98 0v-.621h-1.08v.621zm5.0404-1.422v2.214h-7.1104v-2.214zm-5.5444 5.409v.45h3.942v-.45zm0-1.08v.45h3.942v-.45zm0-1.071v.441h3.942v-.441zm5.0674 3.276h-1.5304c.9544.306 1.9894.702 2.6194.981l-1.161.531c-.558-.297-1.5484-.711-2.5294-1.044l.729-.468h-2.511l.783.351c-.756.495-1.935.927-2.871 1.188-.18-.216-.567-.603-.792-.783.882-.162 1.863-.45 2.502-.756h-1.386v-3.951h6.1474zm5.751-5.409v5.922c.594-.333 1.116-.819 1.557-1.431-.549-.999-.936-2.205-1.215-3.564l1.026-.207c.18.963.45 1.872.828 2.664.351-.774.621-1.674.774-2.682h-2.655v-.702zm-2.313 3.672v.981c.414-.054.846-.117 1.278-.171v-.81zm0-1.854v.9h1.278v-.9zm1.278-1.818h-1.278v.855h1.278zm4.482-.378.702.171c-.189 1.962-.621 3.51-1.296 4.716.441.603.981 1.107 1.629 1.458-.243.198-.576.603-.738.882-.612-.369-1.116-.828-1.548-1.377-.459.558-.99 1.008-1.602 1.377-.135-.234-.378-.567-.594-.783v.846h-1.035v-1.44c-1.035.18-2.088.342-2.916.468l-.207-1.071c.243-.027.522-.054.828-.09v-4.779h-.612v-.99h4.518v.639h2.691zm3.483 2.637v.459h1.656v-.459zm0-1.143v.459h1.656v-.459zm4.419 0h-1.719v.459h1.719zm0 1.602v-.459h-1.719v.459zm1.872 1.206v.9h-1.935v1.053c0 .513-.108.756-.486.9-.369.135-.909.144-1.629.144-.045-.288-.198-.666-.333-.936.477.018 1.044.018 1.197.018.144-.009.198-.045.198-.162v-1.017h-2.925c.45.324.945.765 1.188 1.089l-.855.63c-.243-.36-.81-.9-1.287-1.26l.648-.459h-1.926v-.9h5.157v-.477h-4.293v-3.06h2.646v-.405h-3.303v-.873h3.303v-.594h1.044v.594h3.375v.873h-3.375v.405h2.763v3.06h-1.107v.477zm3.591-4.194h-1.368v.468h1.368zm-1.368 1.746h1.368v-.513h-1.368zm2.367-2.61v3.465h-2.367v4.581h-1.062v-8.046zm1.647 2.628h1.422v-.531h-1.422zm1.422-1.764h-1.422v.468h1.422zm1.08-.864v6.75c0 .612-.126.927-.522 1.089-.387.18-.981.198-1.854.198-.045-.306-.216-.81-.378-1.098.567.036 1.233.027 1.422.027s.252-.063.252-.234v-3.24h-2.439v-3.492zm7.551 6.777v-1.224h-3.195v1.224zm-1.179-4.941v.846h2.808v.945h-2.808v.981h2.277v3.429h-1.098v-.324h-3.195v.333h-1.044v-3.438h1.971v-2.772zm-.351-1.152h3.276v1.017h-6.525v1.251c0 1.449-.135 3.672-.945 5.076-.198-.18-.675-.486-.927-.603.738-1.287.801-3.177.801-4.473v-2.268h3.204v-1.035h1.116z" fill="#333"/><path d="m17.496 21.568c.696 1.008 1.656 2.616 2.208 3.72l-2.088.888c-.696-1.512-1.248-2.544-2.112-3.768zm3.312-1.152c.744.96 1.68 2.52 2.256 3.576l-2.04.912c-.768-1.512-1.368-2.448-2.256-3.648zm-13.728.696c1.584.864 4.224 2.568 5.472 3.432l-1.776 2.64c-1.344-.936-3.84-2.544-5.424-3.432zm-4.44 17.04c2.688-.456 5.568-1.272 8.16-2.712 4.08-2.28 7.44-5.568 9.336-9l1.848 3.264c-2.208 3.336-5.616 6.36-9.528 8.64-2.448 1.368-5.904 2.568-8.016 2.952zm.744-11.568c1.632.864 4.272 2.52 5.496 3.384l-1.752 2.688c-1.368-.96-3.864-2.568-5.472-3.432zm32.736-.864c.456 1.032 1.632 4.152 1.968 5.256l-2.88 1.008c-.288-1.176-1.344-4.08-1.944-5.328zm5.472.672 3.384 1.08c-.288.768-.432 1.272-.576 1.752-.624 2.424-1.632 4.92-3.264 7.032-2.232 2.88-5.232 4.896-8.04 5.952l-2.52-2.568c2.64-.696 5.976-2.52 7.968-5.016 1.632-2.04 2.784-5.232 3.048-8.232zm-11.04.6c.6 1.224 1.752 4.128 2.232 5.472l-2.928 1.104c-.408-1.296-1.608-4.488-2.184-5.544zm37.368-6.288c-.744 0-1.32.576-1.32 1.296s.576 1.32 1.32 1.32c.72 0 1.296-.6 1.296-1.32s-.576-1.296-1.296-1.296zm0 4.08c-1.536 0-2.784-1.248-2.784-2.784s1.248-2.76 2.784-2.76 2.76 1.224 2.76 2.76-1.224 2.784-2.76 2.784zm-14.448 5.328 2.712 1.272c-1.104 2.136-3.312 5.28-4.632 6.696l-2.592-1.776c1.608-1.536 3.528-4.176 4.512-6.192zm13.752-2.136h-5.616v11.16c0 1.392-.792 2.256-2.496 2.256-1.296 0-2.688-.072-3.912-.216l-.288-2.976c1.032.192 2.088.288 2.664.288.624 0 .864-.24.888-.864.024-.888.024-8.496.024-9.624v-.024h-6.096c-.72 0-1.656.024-2.328.096v-3.192c.72.096 1.584.192 2.328.192h6.096v-1.92c0-.624-.12-1.68-.216-2.088h3.552c-.048.336-.216 1.488-.216 2.088v1.92h5.592c.672 0 1.728-.072 2.352-.168v3.144c-.744-.048-1.68-.072-2.328-.072zm-3.336 3.48 2.616-1.416c1.224 1.536 3.144 4.56 4.104 6.312l-2.832 1.536c-1.032-2.064-2.736-4.968-3.888-6.432zm28.584-8.544 2.4 1.968c-.336.384-.648.696-.816 1.008-1.728 2.808-4.8 6.648-8.184 9.384 1.368 1.368 2.784 2.928 3.72 4.056l-2.808 2.232c-1.008-1.344-3.024-3.576-4.584-5.184-1.392-1.416-3.84-3.576-5.28-4.608l2.544-2.04c.96.72 2.544 2.016 4.056 3.336 2.712-2.16 4.968-4.944 6.096-6.912h-12.696c-.96 0-2.256.12-2.76.168v-3.36c.624.096 1.944.216 2.76.216h13.32c.912 0 1.728-.096 2.232-.264zm5.592 16.2v-3.672c.936.072 2.064.168 3 .168h13.776c.816 0 1.824-.072 2.64-.168v3.672c-.84-.096-1.92-.144-2.64-.144h-13.776c-.936 0-2.112.072-3 .144zm2.016-11.928v-3.48c.864.096 1.992.144 2.808.144h9.936c.96 0 1.992-.072 2.664-.144v3.48c-.696-.024-1.824-.096-2.664-.096h-9.912c-.912 0-2.016.048-2.832.096zm29.568-.192h3.48c0 5.952-.12 10.848-6.672 14.352l-2.784-2.28c.768-.264 1.632-.672 2.52-1.32 3.048-2.112 3.624-4.656 3.624-8.592 0-.744-.048-1.392-.168-2.16zm11.352-5.016 1.92 1.776c-.264.312-.72.888-.936 1.248-1.128 1.872-3.408 4.896-5.784 6.576l-2.472-1.992c1.92-1.176 3.792-3.288 4.416-4.464h-12.504c-1.008 0-1.8.072-2.928.168v-3.336c.912.144 1.92.24 2.928.24h12.936c.672 0 1.992-.072 2.424-.216z" fill="#fff"/></svg>
